X: 125
M: 2/4
L: 1/8
K: G
e | g e d B | c> c c e |
g e d B | A2 ze | g e d B |
c c c e | d> c B A |
g d c B | A3 e | g e d B |
c> d e g | d> c B A |
c> c c e | d c B A | G3 |]

